alecto/img/svg/branding.svg

<svg 
 xmlns="http://www.w3.org/2000/svg"
 xmlns:xlink="http://www.w3.org/1999/xlink"
 width="32px" height="32px">
<path
 d="M30.000,-0.000 L10.000,-0.000 C8.896,-0.000 8.000,0.895 8.000,2.000 L8.000,7.999 L2.000,7.999 C0.896,7.999 0.000,8.895 0.000,10.000 L0.000,30.000 C0.000,31.104 0.896,32.000 2.000,32.000 L22.000,32.000 C23.105,32.000 24.000,31.104 24.000,30.000 L24.000,23.999 L30.000,23.999 C31.105,23.999 32.000,23.104 32.000,22.000 L32.000,2.000 C32.000,0.895 31.105,-0.000 30.000,-0.000 ZM21.000,29.000 L3.000,29.000 L3.000,10.999 L8.000,10.999 L8.000,22.000 C8.000,23.104 8.896,23.999 10.000,23.999 L21.000,23.999 L21.000,29.000 ZM29.000,20.999 L11.000,20.999 L11.000,3.000 L29.000,3.000 L29.000,20.999 Z"/>
</svg>

<svg xmlns="http://www.w3.org/2000/svg" width="32" height="32"><path d="M30 0H10a2 2 0 00-2 2v5.999H2A2 2 0 000 10v20a2 2 0 002 2h20a2 2 0 002-2v-6.001h6A2 2 0 0032 22V2a2 2 0 00-2-2zm-9 29H3V10.999h5V22a2 2 0 002 1.999h11V29zm8-8.001H11V3h18v17.999z"/></svg>
